X:1
T:The North Atlantic Squadron
M:6/8
L:1/8
K:F
 c| c2 c c2 A| F2 F F3| G2 G G3| A2 B c3| ccc cAG| FFF FGA| B2 G E2 C|\
 F3 F||
